assets/images/moneys.svg

<svg width="24" height="24" viewBox="0 0 24 24" fill="none" xmlns="http://www.w3.org/2000/svg">
<path d="M14.8902 18.2197H6.10019C5.58019 18.2197 5.09018 18.1698 4.65018 18.0698C4.42018 18.0398 4.14019 17.9597 3.85019 17.8497C2.52019 17.3497 0.950195 16.1198 0.950195 13.0598V7.90973C0.950195 4.63973 2.83019 2.75977 6.10019 2.75977H14.8902C17.6502 2.75977 19.4302 4.07974 19.9102 6.47974C20.0002 6.91974 20.0402 7.38973 20.0402 7.90973V13.0598C20.0402 16.3498 18.1702 18.2197 14.8902 18.2197ZM6.11017 4.27979C3.65017 4.27979 2.46017 5.46975 2.46017 7.92975V13.0798C2.46017 14.8698 3.09019 15.9698 4.38019 16.4598C4.58019 16.5298 4.7702 16.5797 4.9502 16.6097C5.3302 16.6897 5.70017 16.7297 6.11017 16.7297H14.9002C17.3602 16.7297 18.5502 15.5398 18.5502 13.0798V7.92975C18.5502 7.50975 18.5202 7.13974 18.4502 6.79974C18.1102 5.09974 16.9502 4.27979 14.9002 4.27979H6.11017Z" fill="#292D32"/>
<path d="M17.8901 21.2198H9.10009C8.25009 21.2198 7.49008 21.0998 6.84008 20.8498C5.37008 20.2998 4.41007 19.1398 4.08007 17.4798C4.03007 17.2298 4.11009 16.9698 4.29009 16.7998C4.47009 16.6198 4.7301 16.5498 4.9801 16.6098C5.3101 16.6798 5.68009 16.7198 6.10009 16.7198H14.8901C17.3501 16.7198 18.5401 15.5299 18.5401 13.0699V7.91984C18.5401 7.49984 18.5101 7.12984 18.4401 6.78984C18.3901 6.53984 18.4701 6.28985 18.6401 6.10985C18.8201 5.92985 19.0701 5.84983 19.3201 5.90983C21.7201 6.39983 23.0401 8.17984 23.0401 10.9198V16.0699C23.0401 19.3499 21.1701 21.2198 17.8901 21.2198ZM5.9201 18.2198C6.2401 18.7998 6.72009 19.2099 7.38009 19.4499C7.86009 19.6299 8.44007 19.7198 9.11007 19.7198H17.9001C20.3601 19.7198 21.5501 18.5299 21.5501 16.0699V10.9198C21.5501 9.33984 21.0601 8.28985 20.0501 7.73985C20.0501 7.79985 20.0501 7.85984 20.0501 7.91984V13.0699C20.0501 16.3399 18.1701 18.2198 14.9001 18.2198H6.11007C6.04007 18.2198 5.9801 18.2198 5.9201 18.2198Z" fill="#292D32"/>
<path d="M10.4994 13.8899C8.62939 13.8899 7.10938 12.3699 7.10938 10.4999C7.10938 8.62988 8.62939 7.10986 10.4994 7.10986C12.3694 7.10986 13.8894 8.62988 13.8894 10.4999C13.8894 12.3699 12.3694 13.8899 10.4994 13.8899ZM10.4994 8.60986C9.45939 8.60986 8.60938 9.45988 8.60938 10.4999C8.60938 11.5399 9.45939 12.3899 10.4994 12.3899C11.5394 12.3899 12.3894 11.5399 12.3894 10.4999C12.3894 9.45988 11.5394 8.60986 10.4994 8.60986Z" fill="#292D32"/>
<path d="M4.78027 13.4498C4.37027 13.4498 4.03027 13.1098 4.03027 12.6998V8.2998C4.03027 7.8898 4.37027 7.5498 4.78027 7.5498C5.19027 7.5498 5.53027 7.8898 5.53027 8.2998V12.6998C5.53027 13.1098 5.20027 13.4498 4.78027 13.4498Z" fill="#292D32"/>
<path d="M16.21 13.4498C15.8 13.4498 15.46 13.1098 15.46 12.6998V8.2998C15.46 7.8898 15.8 7.5498 16.21 7.5498C16.62 7.5498 16.96 7.8898 16.96 8.2998V12.6998C16.96 13.1098 16.63 13.4498 16.21 13.4498Z" fill="#292D32"/>
</svg>

<svg xmlns="http://www.w3.org/2000/svg" width="24" height="24" fill="#292d32" xmlns:v="https://vecta.io/nano"><path d="M14.89 18.22H6.1a6.59 6.59 0 0 1-1.45-.15c-.23-.03-.51-.11-.8-.22-1.33-.5-2.9-1.73-2.9-4.79V7.91c0-3.27 1.88-5.15 5.15-5.15h8.79c2.76 0 4.54 1.32 5.02 3.72.09.44.13.91.13 1.43v5.15c0 3.29-1.87 5.16-5.15 5.16zM6.11 4.28c-2.46 0-3.65 1.19-3.65 3.65v5.15c0 1.79.63 2.89 1.92 3.38a3.45 3.45 0 0 0 .57.15 5.5 5.5 0 0 0 1.16.12h8.79c2.46 0 3.65-1.19 3.65-3.65V7.93c0-.42-.03-.79-.1-1.13-.34-1.7-1.5-2.52-3.55-2.52H6.11z"/><path d="M17.89 21.22H9.1c-.85 0-1.61-.12-2.26-.37-1.47-.55-2.43-1.71-2.76-3.37a.74.74 0 0 1 .21-.68.73.73 0 0 1 .69-.19 5.38 5.38 0 0 0 1.12.11h8.79c2.46 0 3.65-1.19 3.65-3.65V7.92c0-.42-.03-.79-.1-1.13a.77.77 0 0 1 .2-.68c.18-.18.43-.26.68-.2 2.4.49 3.72 2.27 3.72 5.01v5.15c0 3.28-1.87 5.15-5.15 5.15zm-11.97-3c.32.58.8.99 1.46 1.23.48.18 1.06.27 1.73.27h8.79c2.46 0 3.65-1.19 3.65-3.65v-5.15c0-1.58-.49-2.63-1.5-3.18v.18 5.15c0 3.27-1.88 5.15-5.15 5.15H6.11h-.19zm4.579-4.33c-1.87 0-3.39-1.52-3.39-3.39s1.52-3.39 3.39-3.39 3.39 1.52 3.39 3.39-1.52 3.39-3.39 3.39zm0-5.28c-1.04 0-1.89.85-1.89 1.89s.85 1.89 1.89 1.89 1.89-.85 1.89-1.89-.85-1.89-1.89-1.89zM4.78 13.45c-.41 0-.75-.34-.75-.75V8.3c0-.41.34-.75.75-.75s.75.34.75.75v4.4a.75.75 0 0 1-.75.75zm11.43 0c-.41 0-.75-.34-.75-.75V8.3c0-.41.34-.75.75-.75s.75.34.75.75v4.4a.75.75 0 0 1-.75.75z"/></svg>
